assets/images/feature-bg.svg

<svg xmlns="http://www.w3.org/2000/svg" xmlns:xlink="http://www.w3.org/1999/xlink" width="2560" zoomAndPan="magnify" viewBox="0 0 1920 1172.999948" height="1564" preserveAspectRatio="xMidYMid meet" version="1.0"><defs><clipPath id="1eec1e5d14"><path d="M 0 0 L 436.359375 0 L 436.359375 351.296875 L 0 351.296875 Z M 0 0 " clip-rule="nonzero"/></clipPath><clipPath id="08307b7e31"><path d="M 243.675781 0 L 958.425781 0 L 958.425781 144 L 243.675781 144 Z M 243.675781 0 " clip-rule="nonzero"/></clipPath><clipPath id="e819f2e276"><path d="M 1741 572.328125 L 1919.996094 572.328125 L 1919.996094 1004 L 1741 1004 Z M 1741 572.328125 " clip-rule="nonzero"/></clipPath></defs><rect x="-192" width="2304" fill="#ffffff" y="-117.299995" height="1407.599938" fill-opacity="1"/><rect x="-192" width="2304" fill="#f9e4c8" y="-117.299995" height="1407.599938" fill-opacity="1"/><path fill="#f9cf93" d="M 1373.582031 1173 C 1372.871094 1172.195312 1372.4375 1171.375 1371.910156 1170.601562 C 1366.328125 1162.410156 1365.941406 1153.765625 1369.578125 1144.734375 C 1373.347656 1135.351562 1380.214844 1128.765625 1388.640625 1123.601562 C 1399.371094 1117.042969 1411.167969 1113.582031 1423.554688 1112.296875 C 1432.460938 1111.371094 1441.425781 1110.734375 1450.363281 1110.8125 C 1459.71875 1110.90625 1469.085938 1111.910156 1478.425781 1112.714844 C 1486.992188 1113.457031 1495.542969 1114.429688 1504.09375 1115.375 C 1512.8125 1116.332031 1521.519531 1117.429688 1530.222656 1118.375 C 1534.582031 1118.851562 1538.960938 1119.316406 1543.351562 1119.441406 C 1553.445312 1119.734375 1563.589844 1120.351562 1573.65625 1119.84375 C 1581.679688 1119.441406 1589.75 1118.050781 1597.589844 1116.210938 C 1605.925781 1114.246094 1612.867188 1109.683594 1616.714844 1101.613281 C 1619.621094 1095.535156 1619.621094 1088.902344 1618.679688 1082.519531 C 1616.730469 1069.328125 1613.808594 1056.28125 1611.847656 1043.089844 C 1608.832031 1022.992188 1611.027344 1003.507812 1620.472656 985.21875 C 1627.664062 971.300781 1637.773438 960.09375 1651.828125 952.824219 C 1660.332031 948.433594 1669.441406 945.882812 1678.902344 944.523438 C 1695.632812 942.109375 1712.484375 942.730469 1729.292969 942.359375 C 1742.976562 942.046875 1756.675781 941.246094 1770.019531 937.78125 C 1780.796875 934.996094 1791.046875 931.007812 1800.03125 924.222656 C 1810.914062 915.996094 1818.074219 905.171875 1821.289062 892.046875 C 1823.578125 882.722656 1825.015625 873.183594 1826.578125 863.6875 C 1829.824219 843.929688 1834.03125 824.492188 1842.6875 806.234375 C 1850.171875 790.460938 1859.589844 776.113281 1872.59375 764.347656 C 1885.441406 752.71875 1900.285156 744.804688 1917.398438 741.417969 C 1917.816406 741.339844 1918.21875 741.15625 1918.835938 741 C 1919.085938 884.949219 1919.085938 1028.929688 1919.085938 1173 C 1737.332031 1173 1555.582031 1173 1373.582031 1173 Z M 1373.582031 1173 " fill-opacity="1" fill-rule="nonzero"/><g clip-path="url(#1eec1e5d14)"><path fill="#f9cf93" d="M 0.183594 351.269531 C 43.589844 344.253906 73.335938 318.652344 93.972656 280.929688 C 101.109375 267.886719 108.140625 254.765625 115.953125 242.132812 C 123.671875 229.652344 134.511719 220.480469 149.816406 219.652344 C 162.632812 218.957031 175.582031 219.28125 188.398438 220.144531 C 217.605469 222.109375 246.648438 222.4375 275.394531 215.71875 C 322.09375 204.816406 354.75 176.042969 378.113281 135.308594 C 397.347656 101.753906 409.242188 65.429688 416.949219 27.851562 C 424.28125 -7.8125 429.695312 -43.890625 436.113281 -80.242188 C 291.003906 -80.703125 145.722656 -80.703125 0.183594 -80.703125 C 0.183594 63.109375 0.183594 206.90625 0.183594 351.269531 Z M 0.183594 351.269531 " fill-opacity="1" fill-rule="nonzero"/></g><g clip-path="url(#08307b7e31)"><path fill="#faeee0" d="M 958.609375 -21.984375 C 957.847656 -7.308594 954.59375 6.894531 949.652344 20.707031 C 924.585938 90.828125 856.035156 137.179688 781.628906 134.144531 C 755.855469 133.097656 731.917969 125.441406 709.703125 112.519531 C 698.371094 105.941406 687.355469 98.804688 676.136719 92.027344 C 671.902344 89.460938 667.535156 87.082031 663.183594 84.722656 C 645.269531 75.003906 626.765625 73.84375 607.570312 80.640625 C 593.398438 85.667969 580.039062 92.378906 566.730469 99.277344 C 546.777344 109.601562 527.007812 120.3125 506.007812 128.476562 C 486.695312 135.984375 466.855469 141.246094 446.109375 142.644531 C 413.722656 144.839844 383.089844 138.226562 355.140625 121.898438 C 301.566406 90.574219 264.710938 45.367188 245.617188 -13.9375 C 244.824219 -16.417969 244.285156 -19 243.644531 -21.765625 C 481.902344 -21.984375 720.128906 -21.984375 958.609375 -21.984375 Z M 958.609375 -21.984375 " fill-opacity="1" fill-rule="nonzero"/></g><g clip-path="url(#e819f2e276)"><path fill="#faeee0" d="M 1919.996094 977.679688 C 1890.96875 977.945312 1861.996094 980.851562 1832.914062 979.324219 C 1813.882812 978.328125 1794.84375 977.214844 1776.675781 970.632812 C 1747.527344 960.074219 1744.8125 928.242188 1763.515625 908.328125 C 1773.082031 898.136719 1784.910156 893.027344 1798.785156 892.824219 C 1810.492188 892.652344 1822.210938 892.808594 1833.917969 892.898438 C 1863.941406 893.144531 1882.886719 874.664062 1892.019531 848.671875 C 1902.410156 819.09375 1901.113281 788.53125 1900.144531 757.976562 C 1899.53125 738.691406 1898.226562 719.414062 1898.035156 700.128906 C 1897.878906 684.28125 1896.734375 668.515625 1895.894531 652.722656 C 1894.972656 635.328125 1895.390625 617.953125 1902.757812 601.695312 C 1905.992188 594.546875 1910.398438 588.058594 1919.503906 586.332031 C 1919.996094 581.953125 1919.996094 577.574219 1919.996094 572.601562 C 1906.269531 577.226562 1896.179688 586.339844 1891.636719 600.433594 C 1888.390625 610.523438 1886.085938 620.925781 1885.75 631.664062 C 1884.925781 657.757812 1888.519531 683.652344 1889.195312 709.664062 C 1890.082031 744.140625 1891.9375 778.667969 1888.363281 813.054688 C 1886.964844 826.542969 1882.972656 839.640625 1876.664062 852.042969 C 1866.664062 871.710938 1850.535156 880.019531 1829.246094 880.203125 C 1819.046875 880.285156 1808.820312 880.03125 1798.65625 880.75 C 1770.550781 882.753906 1749.585938 900.429688 1742.847656 927.226562 C 1737.8125 947.242188 1747.820312 970.292969 1765.515625 981.070312 C 1780.816406 990.382812 1797.871094 993.582031 1815.0625 995.457031 C 1849.527344 999.210938 1883.941406 1004.085938 1919.375 1003.117188 C 1919.996094 994.84375 1919.996094 986.5625 1919.996094 977.679688 Z M 1919.996094 977.679688 " fill-opacity="1" fill-rule="nonzero"/></g></svg>

<svg xmlns="http://www.w3.org/2000/svg" width="2560" zoomAndPan="magnify" viewBox="0 0 1920 1173" height="1564" preserveAspectRatio="xMidYMid meet" xmlns:v="https://vecta.io/nano"><defs><clipPath id="A"><path d="M0 0h436.359v351.297H0zm0 0" clip-rule="nonzero"/></clipPath><clipPath id="B"><path d="M243.676 0h714.75v144h-714.75zm0 0" clip-rule="nonzero"/></clipPath><clipPath id="C"><path d="M1741 572.328h178.996V1004H1741zm0 0" clip-rule="nonzero"/></clipPath></defs><path fill="#fff" d="M-192-117.3h2304v1407.6H-192z"/><path fill="#f9e4c8" d="M-192-117.3h2304v1407.6H-192z"/><path fill="#f9cf93" d="M1373.582 1173c-.711-.805-1.145-1.625-1.672-2.398-5.582-8.191-5.969-16.836-2.332-25.867 3.77-9.383 10.637-15.969 19.063-21.133 10.73-6.559 22.527-10.02 34.914-11.305 8.906-.926 17.871-1.562 26.809-1.484 9.355.094 18.723 1.098 28.063 1.902 8.566.742 17.117 1.715 25.668 2.66l26.129 3c4.359.477 8.738.941 13.129 1.066 10.094.293 20.238.91 30.305.402 8.023-.402 16.094-1.793 23.934-3.633 8.336-1.965 15.277-6.527 19.125-14.598 2.906-6.078 2.906-12.711 1.965-19.094-1.949-13.191-4.871-26.238-6.832-39.43-3.016-20.098-.82-39.582 8.625-57.871 7.191-13.918 17.301-25.125 31.355-32.395 8.504-4.391 17.613-6.941 27.074-8.301 16.73-2.414 33.582-1.793 50.391-2.164 13.684-.312 27.383-1.113 40.727-4.578 10.777-2.785 21.027-6.773 30.012-13.559 10.883-8.227 18.043-19.051 21.258-32.176 2.289-9.324 3.727-18.863 5.289-28.359 3.246-19.758 7.453-39.195 16.109-57.453 7.484-15.773 16.902-30.121 29.906-41.887 12.848-11.629 27.691-19.543 44.805-22.93.418-.078.82-.262 1.438-.418l.25 432h-545.504zm0 0"/><g clip-path="url(#A)"><path fill="#f9cf93" d="M.184 351.27c43.406-7.016 73.152-32.617 93.789-70.34 7.137-13.043 14.168-26.164 21.98-38.797 7.719-12.48 18.559-21.652 33.863-22.48 12.816-.695 25.766-.371 38.582.492 29.207 1.965 58.25 2.293 86.996-4.426 46.699-10.902 79.355-39.676 102.719-80.41 19.234-33.555 31.129-69.879 38.836-107.457 7.332-35.664 12.746-71.742 19.164-108.094L.184-80.703V351.27zm0 0"/></g><g clip-path="url(#B)"><path fill="#faeee0" d="M958.609-21.984c-.762 14.676-4.016 28.879-8.957 42.691-25.066 70.121-93.617 116.473-168.023 113.438-25.773-1.047-49.711-8.703-71.926-21.625-11.332-6.578-22.348-13.715-33.566-20.492-4.234-2.566-8.602-4.945-12.953-7.305-17.914-9.719-36.418-10.879-55.613-4.082-14.172 5.027-27.531 11.738-40.84 18.637-19.953 10.324-39.723 21.035-60.723 29.199-19.312 7.508-39.152 12.77-59.898 14.168-32.387 2.195-63.02-4.418-90.969-20.746-53.574-31.324-90.43-76.531-109.523-135.836-.793-2.48-1.332-5.062-1.973-7.828l714.965-.219zm0 0"/></g><g clip-path="url(#C)"><path fill="#faeee0" d="M1919.996 977.68c-29.027.266-58 3.172-87.082 1.645-19.031-.996-38.07-2.109-56.238-8.691-29.148-10.559-31.863-42.391-13.16-62.305 9.566-10.191 21.395-15.301 35.27-15.504 11.707-.172 23.426-.016 35.133.074 30.023.246 48.969-18.234 58.102-44.227 10.391-29.578 9.094-60.141 8.125-90.695l-2.109-57.848c-.156-15.848-1.301-31.613-2.141-47.406-.922-17.395-.504-34.77 6.863-51.027 3.234-7.148 7.641-13.637 16.746-15.363.492-4.379.492-8.758.492-13.73-13.727 4.625-23.816 13.738-28.359 27.832-3.246 10.09-5.551 20.492-5.887 31.23-.824 26.094 2.77 51.988 3.445 78 .887 34.477 2.742 69.004-.832 103.391-1.398 13.488-5.391 26.586-11.699 38.988-10 19.668-26.129 27.977-47.418 28.16-10.199.082-20.426-.172-30.59.547-28.105 2.004-49.07 19.68-55.809 46.477-5.035 20.016 4.973 43.066 22.668 53.844 15.301 9.313 32.355 12.512 49.547 14.387 34.465 3.754 68.879 8.629 104.313 7.66.621-8.273.621-16.555.621-25.437zm0 0"/></g></svg>
